!!!!SEGMENT: pl-kk--kk-i-271--001_anonim--rorate-caeli.krn
!!!cenid: 16xx:723
!!!COM: Anonim
!!!COM-rismID: pe30004985
!!!CDT:
!!!CNT:
!!!OTL: Rorate caeli
!!!PDT:
!!!AGN: Sacred
!!!SMS-siglum: PL-Kk
!!!SMS-shelfmark: Kk.I.271
!!!SMS-shelfwork: 001 W
!!!SMS-variant:
!!!SMS-altvar:
!!!NIFC-rismSourceID: 1001138841
!!!NIFC-rismChildID: 1001138968
!!!NIFC-islandoraID: pl-kk:4832
!!!URL-pdf-islandora: https://repozytorium.nifc.pl/islandora/object/pl-kk%3A4832/datastream/PDF/view
!!!URL-scan: https://polish.musicsources.pl/pl/lokalizacje/galeria/rekopisy/5889 @EN{Scan on Polish Music Sources Website} @PL{Skany w portalu Dziedzictwo Muzyki Polskiej w otwartym dostępie}
!!!ONB-nifc: UWAGA: utwory w zbiorze: 1. Rorate caeli, 2. Tolite portas principes
!!!AIN: 1 alto 1 empty 2 tenor
!!!key:
**kern	**text	**kern	**text	**kern	**text	**kern	**text
*part4	*part4	*part3	*part3	*part2	*part2	*part1	*part1
*staff4	*staff4	*staff3	*staff3	*staff2	*staff2	*staff1	*staff1
*Iempty	*	*Itenor	*	*Itenor	*	*Ialto	*
*I"Baſso	*	*I"Tenore Secundo	*	*I"Tenore Primo.	*	*I"Alto.	*
*I'B	*	*I'T II	*	*I'T I	*	*I'A	*
*clefF4	*	*clefC4	*	*clefC4	*	*clefC3	*
*k[]	*	*k[]	*	*k[]	*	*k[]	*
*a:	*	*a:	*	*a:	*	*a:	*
*M2/2	*	*M2/2	*	*M2/2	*	*M2/2	*
*met(c|)	*	*met(c|)	*	*met(c|)	*	*met(c|)	*
=1	=1	=1	=1	=1	=1	=1	=1
!LO:TX:t=P:problem=oznaczenie metryczne Z przekreślone	!	!LO:TX:t=P:problem=oznaczenie metryczne Z przekreślone	!	!LO:TX:t=P:problem=oznaczenie metryczne Z przekreślone	!	!LO:TX:t=P:problem=oznaczenie metryczne Z przekreślone	!
00r	.	00r	.	2r	.	00r	.
.	.	.	.	2E/	Ro-	.	.
=2	=2	=2	=2	=2	=2	=2	=2
*	*	*	*	*2\right	*	*	*
.	.	.	.	2A\	-ra-	.	.
.	.	.	.	4c\	-te	.	.
.	.	.	.	4B\	.	.	.
=3	=3	=3	=3	=3	=3	=3	=3
!	!	!	!	!	!LO:MO:mod=cae-	!	!
.	.	.	.	2A\	coe-	.	.
.	.	.	.	2A\	-li	.	.
=4	=4	=4	=4	=4	=4	=4	=4
.	.	.	.	(2B\	de	.	.
.	.	.	.	4A\)	.	.	.
.	.	.	.	4A\	su-	.	.
=5	=5	=5-	=5	=5	=5	=5	=5
00r	.	2rF	.	2G#X\	-per	00r	.
.	.	2E/	Ro-	2B\	Ro-	.	.
=6	=6	=6	=6	=6	=6	=6	=6
*	*	*2\right	*	*	*	*	*
.	.	2A\	-ra-	2c\	-ra-	.	.
.	.	4c\	-te	4e\	-te	.	.
.	.	4B\	.	4d\	.	.	.
=7	=7	=7	=7	=7	=7	=7	=7
!	!	!	!LO:MO:mod=cae-	!	!LO:MO:mod=cae-	!	!
.	.	2A\	coe-	2c\	coe-	.	.
.	.	2A\	-li	2c\	-li	.	.
=8	=8	=8	=8	=8	=8	=8	=8
.	.	(2B\	de	(2d\	de-	.	.
.	.	4A\)	.	4c\)	.	.	.
.	.	4A\	su-	4c\	-su-	.	.
=9	=9	=9	=9	=9	=9	=9-	=9
00r	.	2G#X\	-per	2B\	-per	2rA	.
*	*	*	*ij	*	*	*2\right	*
.	.	2B\	Ro-	2e\	Ro-	2e\	Ro-
=10	=10	=10	=10	=10	=10	=10	=10
.	.	2c\	-ra-	1e	-ra-	2a\	-ra-
.	.	4e\	-te	.	.	4cc\	-te
.	.	4d\	.	.	.	4b\	.
!	!	!	!	!LO:LB:g=original	!	!	!
=11	=11	=11	=11	=11	=11	=11	=11
!	!	!	!LO:MO:mod=cae-	!	!	!	!LO:MO:mod=cae-
.	.	2c\	coe-	1e	.	2a\	coe-
.	.	2c\	-li	.	.	2a\	-li
=12	=12	=12	=12	=12	=12	=12	=12
.	.	2d\	de-	1e	.	(2b\	de-
.	.	4c\	.	.	.	4a\)	.
.	.	4c\	-su-	.	.	4a\	-su-
=13-	=13	=13	=13	=13	=13	=13	=13
1E	Ro-	2B\	-per	2e\	-te	2g#X\	-per
*	*	*	*Xij	*	*	*	*ij
.	.	2e\	Ro-	2B\	ro-	2g#\	Ro-
=14	=14	=14	=14	=14	=14	=14	=14
*2\right	*	*	*	*	*	*	*
2A\	-ra-	1e	-ra-	2c\	-ra-	2a\	-ra-
4c\	-te	.	.	4e\	-te	2a\	-te
4B\	.	.	.	4d\	.	.	.
=15	=15	=15	=15	=15	=15	=15	=15
!	!	!	!	!	!LO:MO:mod=cae-	!	!LO:MO:mod=cae-
2A\	cae-	1e	.	2c\	coe-	2e\	coe-
2A\	-li	.	.	2c\	-li	2e\	-li
!	!	!LO:LB:g=original	!	!	!	!	!
=16	=16	=16	=16	=16	=16	=16	=16
(2B\	de-	1e	.	2d\	deſ-	2g#X\	de-
4A\)	.	.	.	4c\	-u-	4a\	.
4A\	-su-	.	.	4c\	.	4a\	-su-
=17	=17	=17	=17	=17	=17	=17	=17
*	*	*	*	*	*	*	*Xij
2G#X\	-per	2e\	-te	2B\	-per	2e\	-per
2G#\	ro-	2r	.	2B\	Ro-	2r	.
!LO:LB:g=original	!	!	!	!	!	!	!
=18	=18	=18	=18	=18	=18	=18	=18
2A\	-ra-	2r	.	2c\	-ra-	2r	.
!	!	!	!LO:MO:mod=cae-	!	!	!	!LO:MO:mod=cae-
2E\	-te	4e\	coe-	2B\	-te	2g#X\	coe-
.	.	4d\	.	.	.	.	.
!	!	!	!	!	!	!LO:LB:g=original	!
=19	=19	=19	=19	=19	=19	=19	=19
2r	.	2c\	.	2r	.	2a\	.
*	*	*	*	*	*ij	*	*
2E\	ro-	2B\	-li	2B\	Ro-	2g#X\	-li
=20	=20	=20	=20	=20	=20	=20	=20
2A\	-ra-	2r	.	2c\	-ra-	2r	.
!	!	!	!LO:MO:mod=cae-	!	!	!	!LO:MO:mod=cae-
*	*	*	*ij	*	*	*	*ij
2E\	-te	4e\	coe-	2B\	-te	2g#X\	coe-
*	*	*	*	*	*Xij	*	*
.	.	4d\	.	.	.	.	.
=21	=21	=21	=21	=21	=21	=21	=21
2r	.	2c\	.	2r	.	2a\	.
2E\	ro-	2B\	-li	2B\	ro-	2g#X\	-li
*	*	*	*Xij	*	*	*	*Xij
=22	=22	=22	=22	=22	=22	=22	=22
2A\	-ra-	1r	.	2c\	-ra-	1r	.
2B\	-te	.	.	2d\	-te	.	.
=23	=23	=23-	=23	=23	=23	=23-	=23
!	!	!	!	!	!LO:MO:mod=cae-	!	!
2c\	cae-	2r	.	2e\	coe-	2r	.
2G#X\	-li	2B\	ro-	2B\	-li	2e\	ro-
!	!	!	!	!LO:LB:g=original	!	!	!
=24	=24	=24	=24	=24	=24	=24	=24
1r	.	2c\	-ra-	1r	.	2a\	-ra-
.	.	2d\	-te	.	.	2b\	-te
!LO:LB:g=original	!	!	!	!	!	!	!
=25	=25	=25	=25	=25-	=25	=25	=25
!	!	!	!LO:MO:mod=cae-	!	!	!	!LO:MO:mod=cae-
2r	.	2e\	coe-	2r	.	2cc\	coe-
2E\	Ro-	4B\	-li	2e\	Ro-	2g#X\	-li
*	*	*	*ij	*	*	*	*
.	.	4B\	ro-	.	.	.	.
=26	=26	=26	=26	=26	=26	=26	=26
1E	-ra-	2c\	-ra-	2e\	-ra-	2a\	de-
.	.	2d\	-te	2d\	-te	2b\	.
=27	=27	=27	=27	=27	=27	=27	=27
!	!	!	!LO:MO:mod=cae-	!	!LO:MO:mod=cae-	!	!
1E	.	2e\	coe-	2c\	coe-	2cc\	.
.	.	4B\	-li	2B\	-li	2g#X\	-su-
*	*	*	*Xij	*	*	*	*
.	.	4B\	ro-	.	.	.	.
=28	=28	=28	=28	=28	=28	=28	=28
1E	.	2c\	-ra-	2e\	de-	2a\	-per
*	*	*	*	*	*	*	*ij
.	.	2d\	.	2d\	.	2b\	de-
!	!	!LO:LB:g=original	!	!	!	!	!
=29	=29	=29	=29	=29	=29	=29	=29
!	!	!	!	!	!	!LO:TX:t=P:problem=skreślony takt	!
2.E\	.	2e\	.	2c\	.	2cc\	.
.	.	2B\	.	2B\	-su-	2g#X\	-su-
4G#X\	.	.	.	.	.	.	.
!	!	!	!	!	!	!LO:LB:g=original	!
=30	=30	=30	=30	=30	=30	=30	=30
2.A\	.	4c\	.	2c\	-per	2a\	-per
*	*	*	*	*	*	*	*Xij
.	.	4d\	.	.	.	.	.
.	.	2e\	.	2c#X\	ro-	2a\	Ro-
4Gn\	.	.	.	.	.	.	.
=31	=31	=31	=31	=31	=31	=31	=31
4F\	.	1f	.	4d\	-ra-	4a\	-ra-
4E\	.	.	.	4e\	.	4gn\	.
4D\	.	.	.	4f\	.	4f\	.
4F\	.	.	.	4d\	.	4a\	.
!LO:LB:g=original	!	!	!	!	!	!	!
=32	=32	=32	=32	=32	=32	=32	=32
2.G\	.	4B\	.	2.B\	.	1g	.
.	.	4c\	.	.	.	.	.
.	.	2d\	.	.	.	.	.
4F\	.	.	.	4d\	.	.	.
=33	=33	=33	=33	=33	=33	=33	=33
4E\	.	1e	.	4c\	.	4g\	.
!	!	!	!	!LO:TX:t=P:problem=♮ na początku taktu	!	!	!
4D\	.	.	.	4dn\	.	4f\	.
4C\	.	.	.	4e\	.	4e\	.
4E\	.	.	.	4c\	.	4g\	.
=34	=34	=34	=34	=34	=34	=34	=34
2.F\	.	4A\	.	2.A\	.	[y1f	.
.	.	4B\	.	.	.	.	.
.	.	2c\	.	.	.	.	.
4E\	.	.	.	4c\	.	.	.
=35	=35	=35	=35	=35	=35	=35	=35
!	!	!	!	!	!	!LO:N:xstem:cue:vis=4	!
4D/	.	1f	.	4B\	.	2f\]	.
4C/	.	.	.	4c\	.	.	.
4BB/	.	.	.	2d\	.	2g\	.
4GG/	.	.	.	.	.	.	.
!	!	!	!	!LO:LB:g=original	!	!	!
=36	=36	=36	=36	=36	=36	=36	=36
1C	-te	2e\	-te	2e\	.	1g	-te
!	!	!	!	!LO:TX:a:t=vi	!	!	!
.	.	2c\	ro-	2e\	-te	.	.
=37	=37	=37	=37	=37	=37	=37	=37
!	!	!	!	!	!LO:MO:mod=cae-	!	!
!	!	!	!	!LO:TX:a:t=de	!	!	!LO:MO:mod=cae-
1G	ro-	1B	-ra-	2d\	coe-	1g	coe-
.	.	.	.	2e\	.	.	.
=38	=38	=38	=38	=38	=38	=38	=38
2A\	-ra-	2c\	.	2e\	-[[coe]]-	2e\	.
2A\	-te	2c\	-te	2f\	-li	2c\	-li
!LO:LB:g=original	!	!	!	!	!	!	!
=39	=39	=39	=39	=39	=39	=39	=39
!	!	!	!LO:MO:mod=cae-	!	!	!	!
2.B\	cae-	2.f\	coe-	2.d\	de-	4d\	de-
.	.	.	.	.	.	8e\L	.
.	.	.	.	.	.	8f\J	.
.	.	.	.	.	.	4g\	.
4B\	-li	4d\	-li	4d\	-ſu-	4g\	-su-
=40	=40	=40	=40	=40	=40	=40	=40
2.c\	de-	2.c\	de-	2.e\	-per	2g\	-per
.	.	.	.	.	.	2g\	et
4c\	-su-	4c\	-su-	4e\	et	.	.
!	!	!LO:LB:g=original	!	!	!	!	!
=41	=41	=41	=41	=41	=41	=41	=41
2d\	-per	2c\	-per	2f\	nu-	2f\	nu-
2A\	et	2c\	et	2f\	-bes	2f\	-bes
!	!	!	!	!	!	!LO:LB:g=original	!
=42	=42	=42	=42	=42	=42	=42	=42
2B\	nu-	2f\	nu-	2d\	plu-	4f\	plu-
.	.	.	.	.	.	4g\	.
2c\	-bes	2e\	-bes	2e\	-ant	2g\	-ant
=43	=43	=43	=43	=43	=43	=43	=43
1F	plu-	1A	plu-	2c\	Ju-	2f\	Ju-
.	.	.	.	2d\	.	2a\	.
=44	=44	=44	=44	=44	=44	=44	=44
1G	-ant	1B	-ant	2d\	.	2g\	.
.	.	.	.	2e\	.	2b\	.
=45	=45	=45	=45	=45	=45	=45	=45
2A\	Ju-	2c\	Ju-	4e\	.	4a\	.
.	.	.	.	2f\	.	4f\	.
2B\	.	2d\	.	.	.	4d\	.
.	.	.	.	4g\	.	[y4g\	.
!LO:LB:g=original	!	!	!	!	!	!	!
=46	=46	=46	=46	=46	=46	=46	=46
!	!	!	!	!	!	!LO:N:xstem:cue:vis=4	!
2c\	.	2e\	.	2e\	.	2g\]	.
2F\	.	2f\	.	4d\	.	2a\	.
.	.	.	.	4c\	.	.	.
=47	=47	=47	=47	=47	=47	=47	=47
1G	.	1d	.	2c\	.	1g	-s-
.	.	.	.	2B\	-s-	.	.
!	!	!	!	!LO:LB:g=original	!	!	!
=48	=48	=48	=48	=48	=48	=48	=48
2C/	-stum	2e\	-stum	2c\	-tum	2g\	-tum
2C/	a-	2r	.	2r	.	2g\	a-
=49	=49	=49	=49	=49	=49	=49	=49
2E\	-pe-	0r	.	0r	.	2g\	-pe-
2C\	-ri-	.	.	.	.	2g\	-ri-
=50	=50	=50	=50	=50	=50	=50	=50
2F\	-a-	.	.	.	.	4a\	-a-
.	.	.	.	.	.	4b\	.
2E\	-tur	.	.	.	.	2cc\	-tur
=51	=51	=51	=51	=51	=51	=51	=51
(2D\	ter-	1r	.	1r	.	2cc\	ter-
2G\)	.	.	.	.	.	2b\	.
!LO:LB:g=original	!	!	!	!	!	!	!
=52	=52	=52-	=52	=52-	=52	=52	=52
2C/	-ra	2r	.	2r	.	2cc\	-ra
2rBB	.	2c\	A-	2e\	A-	2g\	et
!	!	!	!	!	!	!LO:LB:g=original	!
=53	=53	=53	=53	=53	=53	=53	=53
00r	.	2B\	-pe-	2d\	-pe-	1g	ge-
.	.	2c\	-ri-	2e\	-ri-	.	.
=54	=54	=54	=54	=54	=54	=54	=54
.	.	2d\	-a-	2f\	-a-	1g	.
.	.	2c\	-tur	2e\	-tur	.	.
=55	=55	=55	=55	=55	=55	=55	=55
.	.	2.B\	ter-	2.d\	ter-	2.g\	.
.	.	4A\	.	4c\	.	4g\	-rmi-
=56	=56	=56	=56	=56	=56	=56	=56
!	!	!	!	!	!	!LO:TX:t=P:problem=♯ dopisany ołówkiem	!
.	.	2G#X\	-ra	2B\	-ra	2g#X\	-net
!	!	!	!	!	!LO:MO:mod=ter-	!	!
.	.	2c\	a-	2e\	te-	2a\	et
!	!	!LO:LB:g=original	!	!	!	!	!
=57	=57	=57	=57	=57	=57	=57	=57
0r	.	2B\	-pe-	1e	.	2g#X\	ge-
.	.	2c\	-ri-	.	.	2a\	.
=58	=58	=58	=58	=58	=58	=58	=58
.	.	2d\	-a-	1e	.	2b\	.
.	.	2c\	-tur	.	.	2a\	.
=59	=59	=59	=59	=59	=59	=59	=59
1r	.	2.B\	ter-	1e	.	2.g#X\	.
.	.	4A\	.	.	.	4f#X\	-rmi-
=60	=60	=60	=60	=60	=60	=60	=60
2.E\	et	2G#X\	-ra	2e\	-ra	2e\	-net
.	.	2G#\	et	2B\	et	2e\	et
4D\	.	.	.	.	.	.	.
=61	=61	=61	=61	=61	=61	=61	=61
2C/	ger-	2A\	ge-	2c\	ge-	2a\	ge-
2BB/	.	2B\	.	2d\	.	2g#X\	.
=62	=62	=62	=62	=62	=62	=62	=62
2AA/	.	2c\	.	2e\	.	2cc\	.
2D\	.	2d\	.	2f\	.	4b\	.
.	.	.	.	.	.	4a\	.
=63	=63	=63	=63	=63	=63	=63	=63
2.E\	.	2.B\	.	2.e\	.	2.g#X\	.
4E\	-mi-	4B\	-rmi-	4e\	-rmi-	4g#\	-rmi-
!	!	!	!	!LO:LB:g=original	!	!	!
=64	=64	=64	=64	=64	=64	=64	=64
!	!	!	!	!	!	!LO:TX:t=P:problem=skreślona kauda	!
2AA/	-net	1c#X	-net	1e	-net	1a	-net
2rBB	.	.	.	.	.	.	.
!LO:LB:g=original	!	!	!	!	!	!	!
=65	=65	=65	=65	=65	=65	=65	=65
2D/	ſal-	2d\	ſal-	2f\	ſal-	2a\	ſal-
2C#X/	-va-	2A\	-va-	2e\	-va-	2a\	-va-
!	!	!	!	!	!	!LO:LB:g=original	!
=66	=66	=66	=66	=66	=66	=66	=66
1D	-to-	1d	-to-	1f	-to-	1a	-to-
=67	=67	=67	=67	=67	=67	=67	=67
1AA	-rem.	1c#X	-rem	1e	-rem	1a	-rem
=68||	=68||	=68||	=68||	=68||	=68||	=68||	=68||
!LO:TX:a:t=4	!	!	!	!	!	!	!
00r	.	00r	.	1A	be-	2r	.
!	!	!	!	!	!	!LO:TX:t=P:problem=skrelona kreska taktowa	!
.	.	.	.	.	.	2a\	be-
=69	=69	=69	=69	=69	=69	=69	=69
.	.	.	.	2B\	-ne-	2a\	-ne-
.	.	.	.	2B\	-di-	2g#X\	-di-
=70	=70	=70	=70	=70	=70	=70	=70
.	.	.	.	4c\	-xis-	2a\	-xi-
.	.	.	.	4d\	.	.	.
.	.	.	.	2e\	-ti	2gn\	-ſti
=71	=71	=71	=71	=71	=71	=71	=71
.	.	.	.	2e\	Do-	2.fn\	Do-
.	.	.	.	2d#X\	-mi-	.	.
.	.	.	.	.	.	4f\	-mi-
=72	=72	=72-	=72	=72	=72	=72	=72
2r	.	1e	be-	2e\	-ne	2e\	-ne
2E\	Be-	.	.	2r	.	2r	.
=73	=73	=73	=73	=73	=73	=73	=73
2F#X\	-ne-	2e\	-ne-	0r	.	0r	.
2F#\	-di-	2d\	-di-	.	.	.	.
!	!	!LO:LB:g=original	!	!	!	!	!
=74	=74	=74	=74	=74	=74	=74	=74
2G#X\	-xi-	2c\	-xi-	.	.	.	.
2A\	-sti	2c\	-ſti	.	.	.	.
!LO:LB:g=original	!	!	!	!	!	!	!
=75	=75	=75	=75	=75-	=75	=75-	=75
(4D\	Do-	2.f\	Do-	2.c\	Do-	2.a\	Do-
4E\	.	.	.	.	.	.	.
4Fn\	.	.	.	.	.	.	.
4Gn\)	.	4d\	.	4B\	.	4b\	.
=76	=76	=76	=76	=76	=76	=76	=76
4C\	.	2.e\	.	2.B\	.	2.gn\	.
4D\	.	.	.	.	.	.	.
4E\	.	.	.	.	.	.	.
4F\	.	4c\	.	4A\	.	4a\	.
=77	=77	=77	=77	=77	=77	=77	=77
4BB\	.	2.d\	.	2.A\	.	2.fn\	.
4C\	.	.	.	.	.	.	.
4D\	.	.	.	.	.	.	.
4E\	.	4B\	.	4G#X\	.	4g#X\	.
!	!	!	!	!LO:LB:g=original	!	!LO:LB:g=original	!
=78	=78	=78	=78	=78	=78	=78	=78
4AA\	.	4c\	.	4c\	.	2.e\	.
4BB\	.	4d\	.	4B\	.	.	.
4C\	.	4e\	.	4A\	.	.	.
4D\	-mi-	8d\L	-mi-	4d\	-mi-	4a\	-mi-
.	.	8c\J	.	.	.	.	.
=79	=79	=79	=79	=79	=79	=79	=79
2E\	-ne	2B\	-ne	2B\	-ne	2g#X\	-ne
[<2E\	ter-	2e\	te-	2e\	te-	2g#\	te-
=80	=80	=80	=80	=80	=80	=80	=80
2E\]	.	[2f\	.	2c\	.	2a\	.
[<2D\	.	2f\]	.	2d\	.	2b\	.
!LO:PB:g=original	!	!	!	!	!	!	!
=81	=81	=81	=81	=81	=81	=81	=81
2D\]	.	1e	.	2B\	.	2g#X\	.
2C\	-ram	.	.	2c\	-rram	2a\	-rram
=82	=82	=82	=82	=82	=82	=82	=82
1BB	tu-	1d	-rram	2d\	tu-	2a\	tu-
.	.	.	.	2B\	-am	2g#X\	-am
=83	=83	=83	=83	=83	=83	=83	=83
2AA/	-am	2c\	tu-	4c\	a-	4a\	a-
.	.	.	.	4d\	.	4b\	.
2E\	a-	2B\	-am	4e\	-ver-	4cc\	-ver-
.	.	.	.	4d\	.	4b\	.
=84	=84	=84	=84	=84	=84	=84	=84
4A\	.	4c\	a-	2c\	-ti-	2a\	-ti-
4B\	.	4d\	.	.	.	.	.
4c\	.	4e\	-ver-	2B\	-ſti	2e\	-ſti
4B\	-ver-	4d\	.	.	.	.	.
=85	=85	=85	=85	=85	=85	=85	=85
*	*	*	*	*	*ij	*	*
2A\	-tiſ-	2c\	-ti-	4c\	a-	4a\	a-
.	.	.	.	4d\	.	4b\	.
2E\	-ti	2B\	-ſti	4e\	-ver-	4cc\	-ver-
.	.	.	.	4d\	.	4b\	.
!	!	!LO:LB:g=original	!	!	!	!	!
=86	=86	=86	=86	=86	=86	=86	=86
4A\	a-	4c\	a-	2c\	-ti-	2a\	-ti-
4B\	.	4d\	.	.	.	.	.
4c\	-ver-	4e\	-ver-	2B\	-ſti	2e\	-ſti
*	*	*	*	*	*Xij	*	*
4B\	.	4d\	.	.	.	.	.
!LO:LB:g=original	!	!	!	!	!	!	!
=87	=87	=87	=87	=87	=87	=87	=87
[2A\	-ti-	1c	-ti-	1e	cap-	1a	cap-
!LO:TX:t=P:problem=skreślony dźwięk 2E	!	!	!	!	!	!	!
2A\]	.	.	.	.	.	.	.
=88	=88	=88	=88	=88	=88	=88	=88
2G#X\	-sti	1B	.	2e\	-ti-	2b\	-[ti-
2Gn\	Cap-	.	.	2e\	-vi-	2gn\	-vi]-
!	!	!	!	!	!	!LO:LB:g=original	!
=89	=89	=89	=89	=89	=89	=89	=89
2F#X\	-ti-	1A	-sti	2d#X\	-ta-	2a\	-ta-
2Fn\	-vi-	.	.	2dn\	-tem	2fn\	.
=90	=90	=90	=90	=90	=90	=90	=90
1E	-ta-	2B\	cap-	1e	cap-	2g#X\	-tem
.	.	2e\	.	.	.	2g#\	cap-
!	!	!	!	!LO:LB:g=original	!	!	!
=91	=91	=91	=91	=91	=91	=91	=91
2Fn\	.	2A\	-ti-	2d#X\	-ti-	2a\	-ti-
2F#X\	.	2d\	-vi-	2dn\	-vi-	2a\	-vi-
=92	=92	=92	=92	=92	=92	=92	=92
2G#X\	.	2B\	-ta-	2d\	-ta-	2b\	-ta-
2A\	-tem	2e\	-tem	2c\	-tem	2a\	-tem
!LO:LB:g=original	!	!	!	!	!	!	!
=93	=93	=93	=93	=93	=93	=93	=93
1E	Ja-	1e	Ja-	1B	Ja-	2a\	Ja-
.	.	.	.	.	.	2g#X\	.
=94	=94	=94	=94	=94	=94	=94	=94
!	!	!LO:TX:b:t=Verte.	!	!LO:TX:b:t=Verte ſeque Gloria.	!	!LO:TX:b:t=Verte.	!
1AA	-cob.	1e	-cob	1A	-cob	1a	-cob
!	!	!LO:PB:g=original	!	!LO:PB:g=original	!	!LO:PB:g=original	!
=95||	=95||	=95||	=95||	=95||	=95||	=95||	=95||
*M3/2	*	*M3/2	*	*M3/2	*	*M3/2	*
2.A\	Glo-	2.c\	Glo-	2.A\	Glo-	2.a\	Glo-
4A\	-ri-	4B\	-ri-	4B\	-ri-	4a\	-ri-
2A\	-a	2A\	-a	2c\	-a	2a\	-a
=96	=96	=96	=96	=96	=96	=96	=96
1G#X	Pa-	1e	Pa-	1B	Pa-	1b	Pa-
2E\	-tri	2B\	-tri	2B\	-tri	2g#X\	-tri
=97	=97	=97	=97	=97	=97	=97	=97
2.D\	glo-	2.d\	glo-	2.B\	glo-	2.a\	Glo-
4D\	-ri-	4c\	-ri-	4c\	-ri-	4a\	-ri-
2E\	-a	2B\	-a	2d\	-a	2g#X\	-a
=98	=98	=98	=98	=98	=98	=98	=98
2.C/	fi-	2.A\	fi-	2.c\	fi-	2.e\	fi-
4BB/	-li-	4A\	-li-	4c\	-li-	4e\	-li-
2AA/	-o	2A\	-o	2c\	-o	(4e\	-o
.	.	.	.	.	.	4f\)	.
!LO:LB:g=original	!	!	!	!	!	!	!
=99	=99	=99	=99	=99	=99	=99	=99
1C	et	4e\	et	4G/	et	1gn	et
.	.	4d\	.	4F/	.	.	.
.	.	2e\	ſpi-	2G/	.	.	.
2C/	ſpi-	2e\	-ri-	2G/	ſpi-	2g\	ſpi-
=100	=100	=100	=100	=100	=100	=100	=100
2.F\	-ri-	4d\	.	4A\	-ri-	2.f\	-ri-
.	.	4B\	.	4G\	.	.	.
.	.	4c\	.	4A\	.	.	.
4F\	-tu-	4d\	-tu-	4B\	-tu-	4f\	-tu-
2E\	-i	2e\	-i	2c\	-i	2g\	-i
=101	=101	=101	=101	=101	=101	=101	=101
2F\	ſanc-	4d\	ſanc-	4d\	ſa-	2a\	ſanc-
.	.	4c\	.	4f\	.	.	.
1G	.	2c\	.	2e\	.	1g	.
.	.	2B\	.	2d\	-nc-	.	.
=102	=102	=102	=102	=102	=102	=102	=102
2C/	-to	2c\	-to	2c\	-to	2g\	-to
2C/	si-	2c\	ſi-	2e\	ſi-	2g\	ſi-
2E\	-cut	2c\	-cut	2e\	-cut	2g\	-cut
!	!	!LO:LB:g=original	!	!LO:LB:g=original	!	!LO:LB:g=original	!
=103	=103	=103	=103	=103	=103	=103	=103
1G	e-	4B\	e-	4d\	e-	1g	e-
.	.	4c\	.	4e\	.	.	.
.	.	4B\	.	4d\	.	.	.
.	.	4A\	.	4c\	.	.	.
2G\	-rat	2G\	-rat	2B\	-rat	2g\	-rat
!LO:LB:g=original	!	!	!	!	!	!	!
=104	=104	=104	=104	=104	=104	=104	=104
2E\	in	2G#X\	in	1e	in	2b\	in
2F#X\	.	2A\	.	.	.	2a\	.
2G#X\	prin-	2B\	prin-	2e\	prin-	2g#X\	prin-
=105	=105	=105	=105	=105	=105	=105	=105
2A\	-ci-	2c\	-ci-	1e	-ci-	2a\	-ci-
2Gn\	.	2B\	.	.	.	2b\	.
2Fn\	-pi-	2A\	-pi-	2e\	-pi-	2cc\	-pi-
=106	=106	=106	=106	=106	=106	=106	=106
1E	-o	[2G#X\	-o	1e	-o	1b	-o
.	.	2G#\]	.	.	.	.	.
2A\	et	2c\	et	2e\	et	2a\	et
=107	=107	=107	=107	=107	=107	=107	=107
1A	nunc	1c	nunc	1e	nunc	1a	nunc
2A\	et	2c\	et	2e\	et	2a\	et
=108	=108	=108	=108	=108	=108	=108	=108
1D	sem-	1d	ſem-	1f	ſem-	1a	ſem-
2D/	-per	2d\	-per	2f\	-per	2a\	-per
=109	=109	=109	=109	=109	=109	=109	=109
1Gn	et	1B	et	1d	et	1gn	et
2G\	in	2B\	in	2d\	in	2g\	in
!LO:LB:g=original	!	!	!	!	!	!	!
=110	=110	=110	=110	=110	=110	=110	=110
2.C/	ſae-	2.c\	ſae-	2.e\	ſae-	2.g\	ſae-
4C/	-cu-	4c\	-cu-	4e\	-cu-	4g\	-cu-
2C/	-la	2c\	-la	2e\	-la	2g\	-la
=111	=111	=111	=111	=111	=111	=111	=111
1F	sae-	1A	ſae-	1c	ſae-	1fn	ſae-
2F\	-cu-	2A\	-cu-	2c\	-cu-	2f\	-cu-
!	!	!	!	!	!	!LO:LB:g=original	!
=112	=112	=112	=112	=112	=112	=112	=112
2BB/	-lo-	1B	-lo-	1d	-lo-	1g#X	-lo-
2BB/	.	.	.	.	.	.	.
2AA/	-rum	2c\	-rum	2c\	-rum	2a\	-rum
!	!	!LO:LB:g=original	!	!LO:LB:g=original	!	!	!
=113	=113	=113	=113	=113	=113	=113	=113
2D/	a-	2f\	a-	2c\	A-	1a	a-
1E	.	1e	.	1B	.	.	.
.	.	.	.	.	.	2g#X\	.
=114	=114	=114	=114	=114	=114	=114	=114
2AA/	-men	2e\	-men	2A\	-men	2a\	-men
2A\	ſae-	2d\	ſae-	2A\	ſae-	2f\	ſae-
2G\	-cu-	2e\	-cu-	2A\	-cu-	2e\	-cu-
=115	=115	=115	=115	=115	=115	=115	=115
1F	-lo-	1d	-lo-	1A	-lo-	1a	-lo-
2E\	-rum	2e\	-rum	2A\	-rum	2gn\	-rum
!LO:LB:g=original	!	!	!	!	!	!	!
=116	=116	=116	=116	=116	=116	=116	=116
1.D	A-	1.d	A-	1.A	A-	1.f	a-
=117	=117	=117	=117	=117	=117	=117	=117
!LO:TX:b:t=Rorate ut ſupra	!	!LO:TX:b:t=Rorate ùt ſuprà.	!	!LO:TX:b:t=Rorate ùt ſupra.	!	!LO:TX:b:t=rorate ùt ſupra.	!
1.AA	-men.	1.c#X	-men.	1.A	-men	1.e	-men
==	==	==	==	==	==	==	==
*-	*-	*-	*-	*-	*-	*-	*-
!!!system-decoration: [(s1,s2,s3,s4)]
!!!RDF**kern: < = below
!!!ENC: Marta Lawrence
!!!END: 2021-01-22
!!!ENC: Andrzej Kubiczek
!!!END: 2021-01-21
!!!YEC: Copyright 2022 Narodowy Instytut Fryderyka Chopina (https://polishscores.org)
!!!YEM: License CC-BY-4.0 (https://creativecommons.org/licenses/by/4.0)
